src/assets/images/real-time-bg.svg

<svg height="680" viewBox="0 0 750 680" width="750" xmlns="http://www.w3.org/2000/svg"><g fill="none" fill-rule="evenodd"><g opacity=".244735" transform="translate(0 600)"><path d="m475 64h24v16h-24zm-152 0h120v16h-120zm-64 0h32v16h-32zm-96 0h64v16h-64zm-48 0h16v16h-16z" fill="#659cc8"/><path d="m320 0h48v32h-48zm-80 0h48v32h-48zm-112 0h80v32h-80zm-48 0h16v32h-16zm-80 0h48v32h-48z" fill="#78af9f"/></g><g opacity=".067482" transform="translate(252)"><path d="m474 112h24v48h-24zm-208 0h176v48h-176zm-128 0h96v48h-96zm-56 0h24v48h-24z" fill="#dda032"/><path d="m288 48h24v32h-24zm-128 0h96v32h-96zm-96 0h64v32h-64zm-64 0h32v32h-32z" fill="#d36e2d"/><path d="m416 0h32v16h-32zm-192 0h160v16h-160zm-48 0h16v16h-16zm-96 0h64v16h-64z" fill="#c13f21"/></g></g></svg>

<?xml version="1.0" encoding="UTF-8"?>
<svg width="750px" height="680px" viewBox="0 0 750 680" version="1.1" xmlns="http://www.w3.org/2000/svg" xmlns:xlink="http://www.w3.org/1999/xlink">
    <!-- Generator: Sketch 46.2 (44496) - http://www.bohemiancoding.com/sketch -->
    <title>real-time-bg</title>
    <desc>Created with Sketch.</desc>
    <defs></defs>
    <g id="Mini-site" stroke="none" stroke-width="1" fill="none" fill-rule="evenodd">
        <g id="Lines" transform="translate(-1160.000000, 0.000000)">
            <g id="real-time-bg" transform="translate(1160.000000, 0.000000)">
                <g id="Split-Lines" opacity="0.244735054" transform="translate(0.000000, 600.000000)">
                    <path d="M475,64 L499,64 L499,80 L475,80 L475,64 Z M323,64 L443,64 L443,80 L323,80 L323,64 Z M259,64 L291,64 L291,80 L259,80 L259,64 Z M163,64 L227,64 L227,80 L163,80 L163,64 Z M115,64 L131,64 L131,80 L115,80 L115,64 Z" id="Blue" fill="#659CC8"></path>
                    <path d="M320,0 L368,0 L368,32 L320,32 L320,0 Z M240,0 L288,0 L288,32 L240,32 L240,0 Z M128,0 L208,0 L208,32 L128,32 L128,0 Z M80,0 L96,0 L96,32 L80,32 L80,0 Z M0,0 L48,0 L48,32 L0,32 L0,0 Z" id="Green" fill="#78AF9F"></path>
                </g>
                <g id="Split-Lines" opacity="0.0674818841" transform="translate(252.000000, 0.000000)">
                    <path d="M474,112 L498,112 L498,160 L474,160 L474,112 Z M266,112 L442,112 L442,160 L266,160 L266,112 Z M138,112 L234,112 L234,160 L138,160 L138,112 Z M82,112 L106,112 L106,160 L82,160 L82,112 Z" id="Yellow" fill="#DDA032"></path>
                    <path d="M288,48 L312,48 L312,80 L288,80 L288,48 Z M160,48 L256,48 L256,80 L160,80 L160,48 Z M64,48 L128,48 L128,80 L64,80 L64,48 Z M0,48 L32,48 L32,80 L0,80 L0,48 Z" id="Orange" fill="#D36E2D"></path>
                    <path d="M416,1.0658141e-14 L448,1.0658141e-14 L448,16 L416,16 L416,1.0658141e-14 Z M224,1.0658141e-14 L384,1.0658141e-14 L384,16 L224,16 L224,1.0658141e-14 Z M176,1.0658141e-14 L192,1.0658141e-14 L192,16 L176,16 L176,1.0658141e-14 Z M80,1.0658141e-14 L144,1.0658141e-14 L144,16 L80,16 L80,1.0658141e-14 Z" id="Red" fill="#C13F21"></path>
                </g>
            </g>
        </g>
    </g>
</svg>
